X: 081329
T: Horseshoe
T: Cr\'u Capaill
S: "Ceol Rince na hEireann" 1/52
Z: B.Black
L: 1/8
M: 6/8
R: jig
K: Em
B3 B2G|BGE G3|G3 GBd|eAA ABc|
BcA BcA|BGE G2A|Bcd ecA|GEE DEG :|
A3 ABA|GEE DED|GED c2A|GEE DEG|
A2GA2G|GED DEG|Bcd ecA|GEE DEG :|
